packages/icons/src/components/Logo/assets/light/argo.svg

<svg width="20" height="20" viewBox="0 0 20 20" fill="none" xmlns="http://www.w3.org/2000/svg">
<path d="M6.64225 14.1296C6.64225 14.1296 6.50574 14.5392 6.30096 14.744C6.2409 14.8107 6.16706 14.8635 6.08456 14.8989C6.00206 14.9342 5.91287 14.9513 5.82314 14.9488C5.48673 15.0395 5.14469 15.1079 4.79926 15.1535C4.79926 15.1535 5.27707 15.2218 5.82314 15.29C6.02792 15.29 6.02792 15.29 6.16444 15.3583C6.50574 15.3583 6.64225 15.1535 6.64225 15.1535V14.1296Z" fill="#E9654B"/>
<path d="M12.9221 14.1296C12.9221 14.1296 13.0587 14.5392 13.2634 14.744C13.3235 14.8107 13.3973 14.8635 13.4798 14.8989C13.5623 14.9342 13.6515 14.9513 13.7413 14.9488C14.0777 15.0395 14.4197 15.1079 14.7651 15.1535C14.7651 15.1535 14.2873 15.2218 13.673 15.29C13.4682 15.29 13.4682 15.29 13.3317 15.3583C12.9221 15.3583 12.8539 15.1535 12.8539 15.1535L12.9221 14.1296Z" fill="#E9654B"/>
<path d="M9.85041 14.744C13.9219 14.744 17.2224 11.4435 17.2224 7.37201C17.2224 3.30056 13.9219 0 9.85041 0C5.77896 0 2.47839 3.30056 2.47839 7.37201C2.47839 11.4435 5.77896 14.744 9.85041 14.744Z" fill="#B6CFEA"/>
<path d="M9.85044 14.4709C13.7711 14.4709 16.9494 11.2926 16.9494 7.37193C16.9494 3.45127 13.7711 0.272949 9.85044 0.272949C5.92979 0.272949 2.75146 3.45127 2.75146 7.37193C2.75146 11.2926 5.92979 14.4709 9.85044 14.4709Z" fill="#E6F5F8"/>
<path d="M9.85039 13.3106C13.0548 13.3106 15.6524 10.713 15.6524 7.50859C15.6524 4.30421 13.0548 1.70654 9.85039 1.70654C6.646 1.70654 4.04834 4.30421 4.04834 7.50859C4.04834 10.713 6.646 13.3106 9.85039 13.3106Z" fill="#D0E8F0"/>
<path d="M6.43747 10.2388C6.43747 10.2388 6.91529 17.9521 6.91529 18.0886C6.91529 18.1569 6.98355 18.2934 6.64225 18.4299C6.30095 18.5664 5.2088 18.8395 5.2088 18.8395H6.84703C7.59788 18.8395 7.59788 18.2251 7.59788 18.0886C7.59788 17.9521 7.80266 15.0169 7.80266 15.0169C7.80266 15.0169 7.87092 18.4982 7.87092 18.6347C7.87092 18.7712 7.80266 18.976 7.32485 19.1125C6.98355 19.1808 5.95966 19.3855 5.95966 19.3855H7.52962C8.48526 19.3855 8.48526 18.7712 8.48526 18.7712L8.69004 15.6995C8.69004 15.6995 8.7583 18.7712 8.7583 19.1125C8.7583 19.3855 8.55352 19.5903 7.80266 19.7268C7.32484 19.8633 6.71051 19.9999 6.71051 19.9999H8.48526C9.37263 19.9316 9.50915 19.3173 9.50915 19.3173L11.0109 11.6722L6.43747 10.2388Z" fill="#EE794B"/>
<path d="M13.2633 10.2388C13.2633 10.2388 12.7855 17.9521 12.7855 18.0886C12.7855 18.1569 12.7172 18.2934 13.0585 18.4299C13.3998 18.5664 14.492 18.8395 14.492 18.8395H12.8538C12.1029 18.8395 12.1029 18.2251 12.1029 18.0886C12.1029 17.9521 11.8981 15.0169 11.8981 15.0169C11.8981 15.0169 11.8299 18.4982 11.8299 18.6347C11.8299 18.7712 11.8981 18.976 12.3759 19.1125C12.7172 19.1808 13.7411 19.3855 13.7411 19.3855H12.1712C11.2155 19.3855 11.2155 18.7712 11.2155 18.7712L11.0108 15.6995C11.0108 15.6995 10.9425 18.7712 10.9425 19.1125C10.9425 19.3855 11.1473 19.5903 11.8981 19.7268C12.3759 19.8633 12.9903 19.9999 12.9903 19.9999H11.2155C10.3282 19.9316 10.1916 19.3173 10.1916 19.3173L8.68994 11.6722L13.2633 10.2388Z" fill="#EE794B"/>
<path d="M13.3316 6.48451C13.3316 8.39577 11.7616 9.89748 9.91864 9.89748C8.07564 9.89748 6.50568 8.32751 6.50568 6.48451C6.50568 4.6415 8.07564 3.07153 9.91865 3.07153C11.7617 3.07153 13.3316 4.57324 13.3316 6.48451Z" fill="#EE794B"/>
<path d="M9.91865 14.4026C13.2738 14.4026 15.9937 11.6827 15.9937 8.32753C15.9937 4.97235 13.2738 2.25244 9.91865 2.25244C6.56347 2.25244 3.84357 4.97235 3.84357 8.32753C3.84357 11.6827 6.56347 14.4026 9.91865 14.4026Z" fill="#EE794B"/>
<g opacity="0.22">
<path opacity="0.22" d="M13.1268 10.2388C13.1268 10.2388 13.5364 6.62101 12.9903 5.25582C11.9664 2.86674 9.57733 3.07152 9.57733 3.07152C9.57733 3.07152 10.9425 3.6176 11.0108 5.66538C11.079 7.09883 11.0108 9.21487 11.0108 9.21487L13.1268 10.2388Z" fill="#E34E3B"/>
</g>
<g opacity="0.5">
<path opacity="0.5" d="M8.4852 5.11945C8.74909 5.11945 8.96302 4.90552 8.96302 4.64163C8.96302 4.37774 8.74909 4.16382 8.4852 4.16382C8.22131 4.16382 8.00739 4.37774 8.00739 4.64163C8.00739 4.90552 8.22131 5.11945 8.4852 5.11945Z" fill="#FBDFC3"/>
</g>
<path d="M11.079 11.604C11.079 12.7645 10.533 13.5153 9.85037 13.5153C9.16778 13.5153 8.6217 12.6279 8.6217 11.4675C8.6217 11.4675 9.16778 12.5597 9.91863 12.5597C10.6695 12.5597 11.079 11.604 11.079 11.604Z" fill="#010101"/>
<path d="M11.079 11.6041C11.079 12.355 10.5329 12.7646 9.85035 12.7646C9.16776 12.7646 8.68994 12.2185 8.68994 11.5359C8.68994 11.5359 9.23602 12.2185 9.98687 12.2185C10.7377 12.2185 11.079 11.6041 11.079 11.6041Z" fill="white"/>
<path d="M12.2395 10.5119C13.4081 10.5119 14.3555 9.56448 14.3555 8.39583C14.3555 7.22717 13.4081 6.27979 12.2395 6.27979C11.0708 6.27979 10.1234 7.22717 10.1234 8.39583C10.1234 9.56448 11.0708 10.5119 12.2395 10.5119Z" fill="#E9654B"/>
<path d="M7.46132 10.5119C8.62997 10.5119 9.57736 9.56448 9.57736 8.39583C9.57736 7.22717 8.62997 6.27979 7.46132 6.27979C6.29266 6.27979 5.34528 7.22717 5.34528 8.39583C5.34528 9.56448 6.29266 10.5119 7.46132 10.5119Z" fill="#E9654B"/>
<path d="M12.2395 10.034C13.1442 10.034 13.8777 9.30056 13.8777 8.39579C13.8777 7.49103 13.1442 6.75757 12.2395 6.75757C11.3347 6.75757 10.6013 7.49103 10.6013 8.39579C10.6013 9.30056 11.3347 10.034 12.2395 10.034Z" fill="white"/>
<path d="M7.32475 10.034C8.22952 10.034 8.96297 9.30056 8.96297 8.39579C8.96297 7.49103 8.22952 6.75757 7.32475 6.75757C6.41998 6.75757 5.68652 7.49103 5.68652 8.39579C5.68652 9.30056 6.41998 10.034 7.32475 10.034Z" fill="white"/>
<path d="M7.3248 8.66901C7.58869 8.66901 7.80262 8.45509 7.80262 8.1912C7.80262 7.9273 7.58869 7.71338 7.3248 7.71338C7.06091 7.71338 6.84698 7.9273 6.84698 8.1912C6.84698 8.45509 7.06091 8.66901 7.3248 8.66901Z" fill="#010101"/>
<path d="M12.2394 8.66901C12.5033 8.66901 12.7172 8.45509 12.7172 8.1912C12.7172 7.9273 12.5033 7.71338 12.2394 7.71338C11.9755 7.71338 11.7616 7.9273 11.7616 8.1912C11.7616 8.45509 11.9755 8.66901 12.2394 8.66901Z" fill="#010101"/>
<path d="M2.34188 9.21506C2.29635 9.21781 2.25074 9.21087 2.20809 9.19469C2.16544 9.17851 2.1267 9.15347 2.09444 9.12121C2.06219 9.08895 2.03714 9.05022 2.02096 9.00756C2.00478 8.96491 1.99784 8.9193 2.00059 8.87377V6.1434C1.99784 6.09786 2.00478 6.05226 2.02096 6.0096C2.03714 5.96695 2.06218 5.92821 2.09444 5.89596C2.1267 5.8637 2.16544 5.83865 2.20809 5.82247C2.25074 5.80629 2.29635 5.79935 2.34188 5.8021V5.8021C2.38742 5.79935 2.43302 5.80629 2.47568 5.82247C2.51833 5.83865 2.55707 5.8637 2.58932 5.89596C2.62158 5.92821 2.64663 5.96695 2.66281 6.0096C2.67899 6.05226 2.68593 6.09786 2.68318 6.1434V8.87377C2.68593 8.91931 2.67899 8.96491 2.66281 9.00756C2.64663 9.05022 2.62158 9.08895 2.58932 9.12121C2.55707 9.15347 2.51833 9.17851 2.47568 9.19469C2.43302 9.21087 2.38742 9.21781 2.34188 9.21506V9.21506Z" fill="#B6CFEA"/>
<path d="M17.2224 9.21506C17.1769 9.21781 17.1313 9.21087 17.0886 9.19469C17.046 9.17851 17.0073 9.15347 16.975 9.12121C16.9427 9.08895 16.9177 9.05022 16.9015 9.00756C16.8853 8.96491 16.8784 8.9193 16.8811 8.87377V6.1434C16.8784 6.09786 16.8853 6.05226 16.9015 6.0096C16.9177 5.96695 16.9427 5.92821 16.975 5.89596C17.0073 5.8637 17.046 5.83865 17.0886 5.82247C17.1313 5.80629 17.1769 5.79935 17.2224 5.8021V5.8021C17.268 5.79935 17.3136 5.80629 17.3562 5.82247C17.3989 5.83865 17.4376 5.8637 17.4699 5.89596C17.5021 5.92821 17.5272 5.96695 17.5434 6.0096C17.5595 6.05226 17.5665 6.09786 17.5637 6.1434V8.87377C17.5665 8.91931 17.5595 8.96491 17.5434 9.00756C17.5272 9.05022 17.5021 9.08895 17.4699 9.12121C17.4376 9.15347 17.3989 9.17851 17.3562 9.19469C17.3136 9.21087 17.268 9.21781 17.2224 9.21506V9.21506Z" fill="#B6CFEA"/>
<path d="M7.52959 2.25266C7.71808 2.25266 7.87089 2.09986 7.87089 1.91137C7.87089 1.72287 7.71808 1.57007 7.52959 1.57007C7.3411 1.57007 7.18829 1.72287 7.18829 1.91137C7.18829 2.09986 7.3411 2.25266 7.52959 2.25266Z" fill="white"/>
<path d="M5.07222 11.1264C5.03516 11.131 4.99754 11.1272 4.96211 11.1154C4.92668 11.1036 4.89434 11.0841 4.86744 11.0581C4.04833 10.0343 3.63877 8.73733 3.63877 7.4404C3.63509 6.36205 3.91775 5.30205 4.45788 4.36872C5.00534 3.47997 5.75343 2.73187 6.64219 2.18442C6.69911 2.15893 6.76257 2.1518 6.82374 2.16403C6.8849 2.17627 6.94074 2.20725 6.98348 2.25268C7.00898 2.30961 7.01611 2.37307 7.00387 2.43423C6.99164 2.4954 6.96065 2.55123 6.91522 2.59398C6.06849 3.07251 5.36353 3.76667 4.87198 4.6059C4.38043 5.44514 4.1198 6.39955 4.11658 7.37214C4.11494 8.58603 4.5239 9.7648 5.277 10.7168C5.34526 10.7851 5.34526 10.9899 5.20874 11.0581C5.14048 11.1264 5.14048 11.1264 5.07222 11.1264Z" fill="white"/>
<g opacity="0.25">
<path opacity="0.25" d="M12.9221 14.3344V13.7883C11.9665 14.3344 10.9426 14.8805 9.7139 14.8805C8.34872 14.8805 7.46135 14.2661 6.57397 13.7883L6.64223 14.3344C6.64223 14.3344 7.66612 15.4266 9.78216 15.4266C11.7617 15.3583 12.9221 14.3344 12.9221 14.3344Z" fill="#E9654B"/>
</g>
</svg>

<svg xmlns="http://www.w3.org/2000/svg" width="20" height="20" fill="none" viewBox="0 0 20 20">
    <path fill="#e9654b" d="M6.642 14.13s-.136.41-.341.614a.62.62 0 0 1-.478.205 8 8 0 0 1-1.024.204s.478.069 1.024.137c.205 0 .205 0 .341.068.342 0 .478-.205.478-.205zm6.28 0s.137.41.341.614a.62.62 0 0 0 .478.205q.506.136 1.024.204s-.478.069-1.092.137c-.205 0-.205 0-.341.068-.41 0-.478-.205-.478-.205z"/>
    <path fill="#b6cfea" d="M9.85 14.744A7.372 7.372 0 1 0 9.85 0a7.372 7.372 0 0 0 0 14.744"/>
    <path fill="#e6f5f8" d="M9.85 14.47a7.099 7.099 0 1 0 0-14.197 7.099 7.099 0 0 0 0 14.198"/>
    <path fill="#d0e8f0" d="M9.85 13.31a5.802 5.802 0 1 0 0-11.603 5.802 5.802 0 0 0 0 11.604"/>
    <path fill="#ee794b" d="M6.437 10.239s.478 7.713.478 7.85c0 .068.069.204-.273.34-.341.137-1.433.41-1.433.41h1.638c.75 0 .75-.614.75-.75 0-.137.206-3.072.206-3.072s.068 3.481.068 3.618c0 .136-.068.341-.546.477l-1.365.274h1.57c.955 0 .955-.615.955-.615L8.69 15.7s.068 3.072.068 3.414c0 .273-.204.477-.955.614-.478.136-1.092.273-1.092.273h1.774c.888-.068 1.024-.683 1.024-.683l1.502-7.645z"/>
    <path fill="#ee794b" d="M13.263 10.239s-.477 7.713-.477 7.85c0 .068-.069.204.273.34.34.137 1.433.41 1.433.41h-1.638c-.751 0-.751-.614-.751-.75 0-.137-.205-3.072-.205-3.072s-.068 3.481-.068 3.618c0 .136.068.341.546.477l1.365.274h-1.57c-.955 0-.955-.615-.955-.615L11.01 15.7s-.068 3.072-.068 3.414c0 .273.204.477.955.614A23 23 0 0 0 12.99 20h-1.774c-.888-.068-1.024-.683-1.024-.683L8.69 11.672zm.069-3.754c0 1.91-1.57 3.412-3.413 3.412s-3.413-1.57-3.413-3.412c0-1.844 1.57-3.413 3.413-3.413s3.413 1.501 3.413 3.413"/>
    <path fill="#ee794b" d="M9.919 14.403a6.075 6.075 0 1 0 0-12.15 6.075 6.075 0 0 0 0 12.15"/>
    <path fill="#e34e3b" d="M13.127 10.239s.41-3.618-.137-4.983c-1.024-2.39-3.413-2.184-3.413-2.184s1.366.546 1.434 2.593c.068 1.434 0 3.55 0 3.55z" opacity=".22"/>
    <path fill="#fbdfc3" d="M8.485 5.12a.478.478 0 1 0 0-.956.478.478 0 0 0 0 .955" opacity=".5"/>
    <path fill="#010101" d="M11.079 11.604c0 1.16-.546 1.911-1.229 1.911-.682 0-1.228-.887-1.228-2.048 0 0 .546 1.093 1.297 1.093s1.16-.956 1.16-.956"/>
    <path fill="#fff" d="M11.079 11.604c0 .751-.546 1.16-1.229 1.16-.682 0-1.16-.545-1.16-1.228 0 0 .546.683 1.297.683s1.092-.615 1.092-.615"/>
    <path fill="#e9654b" d="M12.24 10.512a2.116 2.116 0 1 0 0-4.232 2.116 2.116 0 0 0 0 4.232m-4.779 0a2.116 2.116 0 1 0 0-4.232 2.116 2.116 0 0 0 0 4.232"/>
    <path fill="#fff" d="M12.24 10.034a1.638 1.638 0 1 0 0-3.276 1.638 1.638 0 0 0 0 3.276m-4.915 0a1.638 1.638 0 1 0 0-3.276 1.638 1.638 0 0 0 0 3.276"/>
    <path fill="#010101" d="M7.325 8.669a.478.478 0 1 0 0-.956.478.478 0 0 0 0 .956m4.915 0a.478.478 0 1 0 0-.956.478.478 0 0 0 0 .956"/>
    <path fill="#b6cfea" d="M2.342 9.215A.322.322 0 0 1 2 8.874v-2.73a.322.322 0 0 1 .34-.342.322.322 0 0 1 .342.341v2.73a.322.322 0 0 1-.341.342m14.881 0a.323.323 0 0 1-.34-.341v-2.73a.323.323 0 0 1 .34-.342.322.322 0 0 1 .342.341v2.73a.323.323 0 0 1-.342.342"/>
    <path fill="#fff" d="M7.53 2.253a.341.341 0 1 0 0-.683.341.341 0 0 0 0 .683m-2.458 8.873a.25.25 0 0 1-.205-.068C4.048 10.034 3.64 8.738 3.64 7.44a6.1 6.1 0 0 1 .819-3.071 6.7 6.7 0 0 1 2.184-2.185.3.3 0 0 1 .341.069.3.3 0 0 1-.068.341 5.51 5.51 0 0 0-2.798 4.778 5.38 5.38 0 0 0 1.16 3.345c.068.068.068.273-.068.341-.069.068-.069.068-.137.068"/>
    <path fill="#e9654b" d="M12.922 14.334v-.546c-.956.546-1.98 1.092-3.208 1.092-1.365 0-2.253-.614-3.14-1.092l.068.546s1.024 1.093 3.14 1.093c1.98-.069 3.14-1.093 3.14-1.093" opacity=".25"/>
</svg>
